!!!COM: Vivaldi, Antonio
!!!CDT: 1678/03/04/-1741/07/27/
!!!OTL: Concerto in G Minor, Op. 6, No. 3
!!!OMV: No. 3
!!!OMD: Allegro
**kern	**dynam	**kern	**kern	**dynam	**kern	**dynam	**kern	**dynam
*staff5	*staff5	*staff4	*staff3	*staff3	*staff2	*staff2	*staff1	*staff1
*Icemba	*Icemba	*Icemba	*Icello	*Icello	*Ivioln	*Ivioln	*Ivioln	*Ivioln
*>[A,A,B,B]	*>[A,A,B,B]	*>[A,A,B,B]	*>[A,A,B,B]	*>[A,A,B,B]	*>[A,A,B,B]	*>[A,A,B,B]	*>[A,A,B,B]	*>[A,A,B,B]
*>norep[A,B]	*>norep[A,B]	*>norep[A,B]	*>norep[A,B]	*>norep[A,B]	*>norep[A,B]	*>norep[A,B]	*>norep[A,B]	*>norep[A,B]
*>A	*>A	*>A	*>A	*>A	*>A	*>A	*>A	*>A
*clefF4	*clefF4	*clefG2	*clefF4	*clefF4	*clefC3	*clefC3	*clefG2	*clefG2
*k[b-e-]	*k[b-e-]	*k[b-e-]	*k[b-e-]	*k[b-e-]	*k[b-e-]	*k[b-e-]	*k[b-e-]	*k[b-e-]
*M3/8	*M3/8	*M3/8	*M3/8	*M3/8	*M3/8	*M3/8	*M3/8	*M3/8
*MM132	*MM132	*MM132	*MM132	*MM132	*MM132	*MM132	*MM132	*MM132
=1-	=1-	=1-	=1-	=1-	=1-	=1-	=1-	=1-
8G\L	f	4.r	8G\L	f	8b-\L	f	8gg\L	f
8d\	.	.	8d\	.	16b-\L	.	16gg\L	.
.	.	.	.	.	16cc\	.	16aa\	.
8D\J	.	.	8D\J	.	16dd\	.	16bb-\	.
.	.	.	.	.	16cc\JJ	.	16aa\JJ	.
=2	=2	=2	=2	=2	=2	=2	=2	=2
8G/L	.	4.r	8G/L	.	4b-\	.	8gg\L	.
8GG/	.	.	8GG/	.	.	.	8dd\	.
8G/J	.	.	8G/J	.	8d\	.	8gg\J	.
=3	=3	=3	=3	=3	=3	=3	=3	=3
8F#\L	.	4.r	8F#\L	.	4d\	.	8aa\L	.
8D\	.	.	8D\	.	.	.	16aa\L	.
.	.	.	.	.	.	.	16bb-\	.
8F#\J	.	.	8F#\J	.	8d\	.	16ccc\	.
.	.	.	.	.	.	.	16aa\JJ	.
=4	=4	=4	=4	=4	=4	=4	=4	=4
4G\	.	4.r	4G\	.	4d\	.	8bb-\L	.
.	.	.	.	.	.	.	8gg\	.
8GG/	.	.	8GG/	.	8d\	.	8gg\J	.
=5	=5	=5	=5	=5	=5	=5	=5	=5
8GG/L	p	4.r	8GG/L	p	8B-/L	p	8g/L	p
8D/	.	.	8D/	.	16B-/L	.	16g/L	.
.	.	.	.	.	16c/	.	16a/	.
8D/J	.	.	8D/J	.	16d/	.	16b-/	.
.	.	.	.	.	16c/JJ	.	16a/JJ	.
=6	=6	=6	=6	=6	=6	=6	=6	=6
8G/L	.	4.r	8G/L	.	4B-/	.	8g/L	.
8GG/	.	.	8GG/	.	.	.	8d/	.
8G/J	.	.	8G/J	.	8B-/	.	8g/J	.
=7	=7	=7	=7	=7	=7	=7	=7	=7
8F#\L	.	4.r	8F#\L	.	4d\	.	8a/L	.
8D\	.	.	8D\	.	.	.	16a/L	.
.	.	.	.	.	.	.	16b-/	.
8F#\J	.	.	8F#\J	.	8d\	.	16cc/	.
.	.	.	.	.	.	.	16a/JJ	.
=8	=8	=8	=8	=8	=8	=8	=8	=8
4G\	.	4.r	4G\	.	4d\	.	8b-/L	.
.	.	.	.	.	.	.	8g/	.
8GG/	.	.	8GG/	.	8d\	.	8g/J	.
=9	=9	=9	=9	=9	=9	=9	=9	=9
8D\L	f	4.r	8D\L	f	8f\L	f	8bb-\L	f
8D\	.	.	8D\	.	8f\	.	8ccc\	.
8D\J	.	.	8D\J	.	8b-\J	.	8ff\J	.
=10	=10	=10	=10	=10	=10	=10	=10	=10
8E-\L	.	4.r	8E-\L	.	8b-\L	.	8gg\L	.
8D\	.	.	8D\	.	8b-\	.	8ff\	.
8BB-\J	.	.	8BB-\J	.	8b-\J	.	8ff\J	.
=11	=11	=11	=11	=11	=11	=11	=11	=11
8D\L	.	4.r	8D\L	.	8f\L	.	8bb-\L	.
8D\	.	.	8D\	.	8f\	.	8bb-\	.
8D\J	.	.	8D\J	.	8b-\J	.	8ff\J	.
=12	=12	=12	=12	=12	=12	=12	=12	=12
8E-\L	.	4.r	8E-\L	.	8b-\L	.	8gg\L	.
8D\	.	.	8D\	.	8b-\	.	8ff\	.
8BB-\J	.	.	8BB-\J	.	8b-\J	.	8ff\J	.
=13	=13	=13	=13	=13	=13	=13	=13	=13
8D\L	p	4.r	8D\L	p	8f\L	p	8b-/L	p
8D\	.	.	8D\	.	8f\	.	8b-/	.
8D\J	.	.	8D\J	.	8B-\J	.	8f/J	.
=14	=14	=14	=14	=14	=14	=14	=14	=14
8E-\L	.	4.r	8E-\L	.	8B-/L	.	8g/L	.
8D\	.	.	8D\	.	8B-/	.	8f/	.
8BB-\J	.	.	8BB-\J	.	8B-/J	.	8f/J	.
=15	=15	=15	=15	=15	=15	=15	=15	=15
8D\L	.	4.r	8D\L	.	8B-/L	.	8b-/L	.
8D\	.	.	8D\	.	8B-/	.	8f/	.
8D\J	.	.	8D\J	.	8B-/J	.	8f/J	.
=16	=16	=16	=16	=16	=16	=16	=16	=16
8E-\L	.	4.r	8E-\L	.	8B-/L	.	8g/L	.
8D\	.	.	8D\	.	8B-/	.	8f/	.
8BB-\J	.	.	8BB-\J	.	8B-/J	.	8f/J	.
=17	=17	=17	=17	=17	=17	=17	=17	=17
8BB-\L	f	4.r	8BB-\L	f	16dd\LL	f	16ff\LL	f
.	.	.	.	.	16ee-\	.	16gg\	.
8B-\	.	.	8B-\	.	16dd\	.	16ff\	.
.	.	.	.	.	16ee-\	.	16gg\	.
8BB-\J	.	.	8BB-\J	.	16dd\	.	16ff\	.
.	.	.	.	.	16ee-\JJ	.	16gg\JJ	.
=18	=18	=18	=18	=18	=18	=18	=18	=18
8BB-\L	.	4.r	8BB-\L	.	16dd\LL	.	16ff\LL	.
.	.	.	.	.	16ee-\	.	16gg\	.
8B-\	.	.	8B-\	.	16dd\	.	16ff\	.
.	.	.	.	.	16ee-\	.	16gg\	.
8BB-\J	.	.	8BB-\J	.	16dd\	.	16ff\	.
.	.	.	.	.	16ee-\JJ	.	16gg\JJ	.
=19	=19	=19	=19	=19	=19	=19	=19	=19
8BB-\L	.	4.r	8BB-\L	.	8dd\L	.	8ff\L	.
8B-\	.	.	8B-\	.	8d\	.	8b-\	.
8BB-\J	.	.	8BB-\J	.	8d\J	.	8b-\J	.
=20	=20	=20	=20	=20	=20	=20	=20	=20
8BB-\L	p	4.r	8BB-\L	p	16d\LL	p	16f/LL	p
.	.	.	.	.	16e-\	.	16g/	.
8B-\	.	.	8B-\	.	16d\	.	16f/	.
.	.	.	.	.	16e-\	.	16g/	.
8BB-\J	.	.	8BB-\J	.	16d\	.	16f/	.
.	.	.	.	.	16e-\JJ	.	16g/JJ	.
=21	=21	=21	=21	=21	=21	=21	=21	=21
8BB-\L	.	4.r	8BB-\L	.	16d\LL	.	16f/LL	.
.	.	.	.	.	16e-\	.	16g/	.
8B-\	.	.	8B-\	.	16d\	.	16f/	.
.	.	.	.	.	16e-\	.	16g/	.
8BB-\J	.	.	8BB-\J	.	16d\	.	16f/	.
.	.	.	.	.	16e-\JJ	.	16g/JJ	.
=22	=22	=22	=22	=22	=22	=22	=22	=22
8BB-\L	.	4.r	8BB-\L	.	8d\L	.	8f/L	.
8B-\	.	.	8B-\	.	8d\	.	8B-/	.
8BB-\J	.	.	8BB-\J	.	8d\J	.	8B-/J	.
=23	=23	=23	=23	=23	=23	=23	=23	=23
4BB-/	f	4.r	4BB-/	f	4d\	f	8bb-\L	f
.	.	.	.	.	.	.	16aa\L	.
.	.	.	.	.	.	.	16gg\	.
8r	.	.	8r	.	8r	.	16ff\	.
.	.	.	.	.	.	.	16ee-\JJ	.
=24	=24	=24	=24	=24	=24	=24	=24	=24
4BB-/	.	4.r	4BB-/	.	8f\L	.	8dd\L	.
.	.	.	.	.	8d\	.	8ff\	.
8r	.	.	8r	.	8b-\J	.	8bb-\J	.
=25	=25	=25	=25	=25	=25	=25	=25	=25
8BB-/L	.	4.r	8BB-/L	.	8b-\	.	8dd\	.
8F/	.	.	8F/	.	4a\	.	4cc\	.
8FF/J	.	.	8FF/J	.	.	.	.	.
=26	=26	=26	=26	=26	=26	=26	=26	=26
4BB-/	.	4.r	4BB-/	.	4b-\	.	4b-\	.
8r	.	.	8r	.	8r	.	8r	.
=27	=27	=27	=27	=27	=27	=27	=27	=27
4BB-/	p	4.r	4BB-/	p	4f\	p	8b-/L	p
.	.	.	.	.	.	.	16a/L	.
.	.	.	.	.	.	.	16g/	.
8r	.	.	8r	.	8r	.	16f/	.
.	.	.	.	.	.	.	16e-/JJ	.
=28	=28	=28	=28	=28	=28	=28	=28	=28
4BB-/	.	4.r	4BB-/	.	8f\L	.	8d/L	.
.	.	.	.	.	8d\	.	8f/	.
8r	.	.	8r	.	8B-\J	.	8b-/J	.
=29	=29	=29	=29	=29	=29	=29	=29	=29
8BB-\L	.	4.r	8BB-/L	.	8B-/	.	8d/	.
8F\	.	.	8F/	.	4A/	.	4c/	.
8FF\J	.	.	8FF/J	.	.	.	.	.
=30	=30	=30	=30	=30	=30	=30	=30	=30
4BB-/	.	4.r	4BB-/	.	4B-/	.	4B-/	.
8r	.	.	8r	.	8r	.	8r	.
=31	=31	=31	=31	=31	=31	=31	=31	=31
8BB-\L	f	4.r	8BB-\L	f	16d\LL	f	16ff\LL	f
.	.	.	.	.	16e-\J	.	16gg\J	.
8B-\	.	.	8B-\	.	8f\	.	8aa\	.
8BB-\J	.	.	8BB-\J	.	8g\J	.	8bb-\J	.
=32	=32	=32	=32	=32	=32	=32	=32	=32
8BB-\L	.	4.r	8BB-\L	.	4e-\	.	4gg\	.
8B-\	.	.	8B-\	.	.	.	.	.
8BB-\J	.	.	8BB-\J	.	8d\	.	8ff\	.
=33	=33	=33	=33	=33	=33	=33	=33	=33
8BB-\L	.	4.r	8BB-\L	.	16d\LL	.	16ff\LL	.
.	.	.	.	.	16e-\J	.	16gg\J	.
8B-\	.	.	8B-\	.	8f\	.	8aa\	.
8BB-\J	.	.	8BB-\J	.	8g\J	.	8bb-\J	.
=34	=34	=34	=34	=34	=34	=34	=34	=34
8BB-\L	.	4.r	8BB-\L	.	4e-\	.	4gg\	.
8B-\	.	.	8B-\	.	.	.	.	.
8BB-\J	.	.	8BB-\J	.	8d\	.	8ff\	.
=35	=35	=35	=35	=35	=35	=35	=35	=35
8BB-\L	p	4.r	8BB-\L	p	16d\LL	p	16f/LL	p
.	.	.	.	.	16e-\J	.	16g/J	.
8B-\	.	.	8B-\	.	8f\	.	8a/	.
8BB-\J	.	.	8BB-\J	.	8g\J	.	8b-/J	.
=36	=36	=36	=36	=36	=36	=36	=36	=36
8BB-\L	.	4.r	8BB-\L	.	4e-\	.	4g/	.
8B-\	.	.	8B-\	.	.	.	.	.
8BB-\J	.	.	8BB-\J	.	8d\	.	8f/	.
=37	=37	=37	=37	=37	=37	=37	=37	=37
8BB-\L	.	4.r	8BB-\L	.	16d\LL	.	16f/LL	.
.	.	.	.	.	16e-\J	.	16g/J	.
8B-\	.	.	8B-\	.	8f\	.	8a/	.
8BB-\J	.	.	8BB-\J	.	8g\J	.	8b-/J	.
=38	=38	=38	=38	=38	=38	=38	=38	=38
8BB-\L	.	4.r	8BB-\L	.	4e-\	.	4g/	.
8B-\	.	.	8B-\	.	.	.	.	.
8BB-\J	.	.	8BB-\J	.	8d\	.	8f/	.
=39	=39	=39	=39	=39	=39	=39	=39	=39
4BB-/	f	4.r	4BB-/	f	4d\	f	8ff\L	f
.	.	.	.	.	.	.	16gg\L	.
.	.	.	.	.	.	.	16aa\J	.
8r	.	.	8r	.	8d\	.	8bb-\J	.
=40	=40	=40	=40	=40	=40	=40	=40	=40
8BB-\L	.	4.r	8BB-\L	.	8b-\L	.	8dd\L	.
8E-\	.	.	8E-\	.	8cc\	.	8ee-\	.
8F\J	.	.	8F\J	.	8a\J	.	8cc\J	.
=41	=41	=41	=41	=41	=41	=41	=41	=41
4BB-/	.	4.r	4BB-/	.	4b-\	.	4b-\	.
8r	.	.	8r	.	8r	.	8r	.
=42	=42	=42	=42	=42	=42	=42	=42	=42
4BB-/	p	4.r	4BB-/	p	4d\	p	8f/L	p
.	.	.	.	.	.	.	16g/L	.
.	.	.	.	.	.	.	16a/J	.
8r	.	.	8r	.	8d\	.	8b-/J	.
=43	=43	=43	=43	=43	=43	=43	=43	=43
8BB-/L	.	4.r	8BB-/L	.	8B-/L	.	8d/L	.
8EE-/	.	.	8EE-/	.	8c/	.	8e-/	.
8FF/J	.	.	8FF/J	.	8A/J	.	8c/J	.
=44	=44	=44	=44	=44	=44	=44	=44	=44
4.BB-/	.	4.r	4.BB-/	.	4.B-/	.	4.B-/	.
=45:|!|:	=45:|!|:	=45:|!|:	=45:|!|:	=45:|!|:	=45:|!|:	=45:|!|:	=45:|!|:	=45:|!|:
*>B	*>B	*>B	*>B	*>B	*>B	*>B	*>B	*>B
4BB-/	f	4.r	4BB-/	f	4f\	f	8dd\L	f
.	.	.	.	.	.	.	16b-\L	.
.	.	.	.	.	.	.	16cc\	.
8r	.	.	8r	.	8r	.	16dd\	.
.	.	.	.	.	.	.	16ee-\JJ	.
=46	=46	=46	=46	=46	=46	=46	=46	=46
4BB-/	.	4.r	4BB-/	.	16d\LL	.	16ff\LL	.
.	.	.	.	.	16e-\	.	16gg\	.
.	.	.	.	.	16d\	.	16ff\	.
.	.	.	.	.	16e-\	.	16gg\	.
8r	.	.	8r	.	16d\	.	16ff\	.
.	.	.	.	.	16e-\JJ	.	16gg\JJ	.
=47	=47	=47	=47	=47	=47	=47	=47	=47
4BB-/	.	4.r	4BB-/	.	16d\LL	.	16ff\LL	.
.	.	.	.	.	16e-\	.	16gg\	.
.	.	.	.	.	16d\	.	16ff\	.
.	.	.	.	.	16e-\	.	16gg\	.
8r	.	.	8r	.	16d\	.	16ff\	.
.	.	.	.	.	16e-\JJ	.	16gg\JJ	.
=48	=48	=48	=48	=48	=48	=48	=48	=48
4BB-/	.	4.r	4BB-/	.	4d\	.	4.ff\	.
8r	.	.	8r	.	8r	.	.	.
=49	=49	=49	=49	=49	=49	=49	=49	=49
4BB-/	.	4.r	4BB-/	p	4d\	p	8d/L	p
.	.	.	.	.	.	.	16B-/L	.
.	.	.	.	.	.	.	16c/	.
8r	.	.	8r	.	8r	.	16d/	.
.	.	.	.	.	.	.	16e-/JJ	.
=50	=50	=50	=50	=50	=50	=50	=50	=50
4BB-/	.	4.r	4BB-/	.	16d\LL	.	16f/LL	.
.	.	.	.	.	16e-\	.	16g/	.
.	.	.	.	.	16d\	.	16f/	.
.	.	.	.	.	16e-\	.	16g/	.
8r	.	.	8r	.	16d\	.	16f/	.
.	.	.	.	.	16e-\JJ	.	16g/JJ	.
=51	=51	=51	=51	=51	=51	=51	=51	=51
4BB-/	.	4.r	4BB-/	.	16d\LL	.	16f/LL	.
.	.	.	.	.	16e-\	.	16g/	.
.	.	.	.	.	16d\	.	16f/	.
.	.	.	.	.	16e-\	.	16g/	.
8r	.	.	8r	.	16d\	.	16f/	.
.	.	.	.	.	16e-\JJ	.	16g/JJ	.
=52	=52	=52	=52	=52	=52	=52	=52	=52
4BB-/	.	4.r	4BB-/	.	4d\	.	4.f/	.
8r	.	.	8r	.	8r	.	.	.
=53	=53	=53	=53	=53	=53	=53	=53	=53
4C/	f	4.r	4C/	f	4g\	f	8ee-\L	f
.	.	.	.	.	.	.	16cc\L	.
.	.	.	.	.	.	.	16dd\	.
8r	.	.	8r	.	8r	.	16ee-\	.
.	.	.	.	.	.	.	16ff\JJ	.
=54	=54	=54	=54	=54	=54	=54	=54	=54
4C/	.	4.r	4C/	.	16e-\LL	.	16gg\LL	.
.	.	.	.	.	16f\	.	16aa-\	.
.	.	.	.	.	16e-\	.	16gg\	.
.	.	.	.	.	16f\	.	16aa-\	.
8r	.	.	8r	.	16e-\	.	16gg\	.
.	.	.	.	.	16f\JJ	.	16aa-\JJ	.
=55	=55	=55	=55	=55	=55	=55	=55	=55
4C/	.	4.r	4C/	.	16e-\LL	.	16gg\LL	.
.	.	.	.	.	16f\	.	16aa-\	.
.	.	.	.	.	16e-\	.	16gg\	.
.	.	.	.	.	16f\	.	16aa-\	.
8r	.	.	8r	.	16e-\	.	16gg\	.
.	.	.	.	.	16f\JJ	.	16aa-\JJ	.
=56	=56	=56	=56	=56	=56	=56	=56	=56
4C/	.	4.r	4C/	.	4e-\	.	4.gg\	.
8r	.	.	8r	.	8r	.	.	.
=57	=57	=57	=57	=57	=57	=57	=57	=57
4C/	p	4.r	4C/	p	4G/	p	8e-/L	p
.	.	.	.	.	.	.	16c/L	.
.	.	.	.	.	.	.	16d/	.
8r	.	.	8r	.	8r	.	16e-/	.
.	.	.	.	.	.	.	16f/JJ	.
=58	=58	=58	=58	=58	=58	=58	=58	=58
4C/	.	4.r	4C/	.	16e-\LL	.	16g/LL	.
.	.	.	.	.	16f\	.	16a-/	.
.	.	.	.	.	16e-\	.	16g/	.
.	.	.	.	.	16f\	.	16a-/	.
8r	.	.	8r	.	16e-\	.	16g/	.
.	.	.	.	.	16f\JJ	.	16a-/JJ	.
=59	=59	=59	=59	=59	=59	=59	=59	=59
4C/	.	4.r	4C/	.	16e-\LL	.	16g/LL	.
.	.	.	.	.	16f\	.	16a-/	.
.	.	.	.	.	16e-\	.	16g/	.
.	.	.	.	.	16f\	.	16a-/	.
8r	.	.	8r	.	16e-\	.	16g/	.
.	.	.	.	.	16f\JJ	.	16a-/JJ	.
=60	=60	=60	=60	=60	=60	=60	=60	=60
4C/	.	4.r	4C/	.	4e-\	.	4.g/	.
8r	.	.	8r	.	8r	.	.	.
=61	=61	=61	=61	=61	=61	=61	=61	=61
8E-\L	f	4.r	8E-\L	f	8cc\L	f	8gg\L	f
8E-\	.	.	8E-\	.	8cc\	.	8ccc\	.
8E-\J	.	.	8E-\J	.	8cc\J	.	8gg\J	.
=62	=62	=62	=62	=62	=62	=62	=62	=62
8F\L	.	4.r	8F\L	.	8cc\L	.	8aa-\L	.
8E-\	.	.	8E-\	.	8cc\	.	8gg\	.
8E-\J	.	.	8E-\J	.	8cc\J	.	8ccc\J	.
=63	=63	=63	=63	=63	=63	=63	=63	=63
8F\L	.	4.r	8F\L	.	8cc\L	.	8aa-\L	.
8E-\	.	.	8E-\	.	8cc\	.	8gg\	.
8E-\J	.	.	8E-\J	.	8cc\J	.	8ccc\J	.
=64	=64	=64	=64	=64	=64	=64	=64	=64
8F\L	.	4.r	8F\L	.	8cc\L	.	8aa-\L	.
8E-\	.	.	8E-\	.	8cc\	.	8gg\	.
8E-\J	.	.	8E-\J	.	8cc\J	.	8ccc\J	.
=65	=65	=65	=65	=65	=65	=65	=65	=65
8C/L	.	4.r	8C/L	.	8cc\L	.	8ee-\L	.
8FF/	.	.	8FF/	.	8dd\	.	8ff\	.
8GG/J	.	.	8GG/J	.	8bn\J	.	8dd\J	.
=66	=66	=66	=66	=66	=66	=66	=66	=66
4C/	.	4.r	4C/	.	4cc\	.	4cc\	.
8r	.	.	8r	.	8r	.	8r	.
=67	=67	=67	=67	=67	=67	=67	=67	=67
8E-\L	p	4.r	8E-\L	p	8c\L	p	8g\L	p
8E-\	.	.	8E-\	.	8c\	.	8cc\	.
8E-\J	.	.	8E-\J	.	8c\J	.	8g\J	.
=68	=68	=68	=68	=68	=68	=68	=68	=68
8F\L	.	4.r	8F\L	.	8c\L	.	8a-\L	.
8E-\	.	.	8E-\	.	8c\	.	8g\	.
8E-\J	.	.	8E-\J	.	8c\J	.	8cc\J	.
=69	=69	=69	=69	=69	=69	=69	=69	=69
8F\L	.	4.r	8F\L	.	8c\L	.	8a-\L	.
8E-\	.	.	8E-\	.	8c\	.	8g\	.
8E-\J	.	.	8E-\J	.	8c\J	.	8cc\J	.
=70	=70	=70	=70	=70	=70	=70	=70	=70
8F\L	.	4.r	8F\L	.	8c\L	.	8a-\L	.
8E-\	.	.	8E-\	.	8c\	.	8g\	.
8E-\J	.	.	8E-\J	.	8c\J	.	8cc\J	.
=71	=71	=71	=71	=71	=71	=71	=71	=71
8C/L	.	4.r	8C/L	.	8c\L	.	8e-/L	.
8FF/	.	.	8FF/	.	8d\	.	8f/	.
8GG/J	.	.	8GG/J	.	8Bn\J	.	8d/J	.
=72	=72	=72	=72	=72	=72	=72	=72	=72
4C/	.	4.r	4C/	.	4c\	.	4c/	.
8r	.	.	8r	.	8r	.	8r	.
=73	=73	=73	=73	=73	=73	=73	=73	=73
8G\L	f	4.r	8G\L	f	8d\L	f	8gg\L	f
8d\	.	.	8d\	.	16b-\L	.	16gg\L	.
.	.	.	.	.	16cc\	.	16aa\	.
8D\J	.	.	8D\J	.	16dd\	.	16bb-\	.
.	.	.	.	.	16cc\JJ	.	16aa\JJ	.
=74	=74	=74	=74	=74	=74	=74	=74	=74
8G\L	.	4.r	8G\L	.	4b-\	.	8gg\L	.
8GG\	.	.	8GG\	.	.	.	8dd\	.
8G\J	.	.	8G\J	.	8b-\	.	8gg\J	.
=75	=75	=75	=75	=75	=75	=75	=75	=75
8F#\L	.	4.r	8F#\L	.	4d\	.	8aa\L	.
8D\	.	.	8D\	.	.	.	16aa\L	.
.	.	.	.	.	.	.	16bb-\	.
8F#\J	.	.	8F#\J	.	8d\	.	16ccc\	.
.	.	.	.	.	.	.	16aa\JJ	.
=76	=76	=76	=76	=76	=76	=76	=76	=76
4G\	.	4.r	4G\	.	4d\	.	8bb-\L	.
.	.	.	.	.	.	.	8gg\	.
8GG/	.	.	8GG/	.	8d\	.	8gg\J	.
=77	=77	=77	=77	=77	=77	=77	=77	=77
8GG/L	p	4.r	8GG/L	p	8d\L	p	8g/L	p
8D/	.	.	8D/	.	16B-\L	.	16g/L	.
.	.	.	.	.	16c\	.	16a/	.
8DD/J	.	.	8DD/J	.	16d\	.	16b-/	.
.	.	.	.	.	16c\JJ	.	16a/JJ	.
=78	=78	=78	=78	=78	=78	=78	=78	=78
8GG\L	.	4.r	8GG\L	.	4B-/	.	8g/L	.
8G\	.	.	8G\	.	.	.	8d/	.
8GG\J	.	.	8GG\J	.	8B-/	.	8g/J	.
=79	=79	=79	=79	=79	=79	=79	=79	=79
8F#\L	.	4.r	8F#\L	.	4d\	.	8a\L	.
8D\	.	.	8D\	.	.	.	16a\L	.
.	.	.	.	.	.	.	16b-\	.
8F#\J	.	.	8F#\J	.	8d\	.	16cc\	.
.	.	.	.	.	.	.	16a\JJ	.
=80	=80	=80	=80	=80	=80	=80	=80	=80
4G\	.	4.r	4G\	.	4d\	.	8b-/L	.
.	.	.	.	.	.	.	8g/	.
8GG/	.	.	8GG/	.	8d\	.	8g/J	.
=81	=81	=81	=81	=81	=81	=81	=81	=81
4C/	f	4.r	4C/	f	4e-\	f	8gg\L	f
.	.	.	.	.	.	.	8aa-\	.
8C/	.	.	8C/	.	8e-\	.	8gg\J	.
=82	=82	=82	=82	=82	=82	=82	=82	=82
4C/	.	4.r	4C/	.	4e-\	.	8ccc\L	.
.	.	.	.	.	.	.	8ff#\	.
8BB-/	.	.	8BB-/	.	8d\	.	8gg\J	.
=83	=83	=83	=83	=83	=83	=83	=83	=83
4C/	p	4.r	4C/	p	4e-\	p	8g/L	p
.	.	.	.	.	.	.	8a-/	.
8C/	.	.	8C/	.	8e-\	.	8g/J	.
=84	=84	=84	=84	=84	=84	=84	=84	=84
4C/	.	4.r	4C/	.	4e-\	.	8cc/L	.
.	.	.	.	.	.	.	8f#/	.
8BB-/	.	.	8BB-/	.	8d\	.	8g/J	.
=85	=85	=85	=85	=85	=85	=85	=85	=85
8G\L	f	4.r	8G\L	f	4d\	f	16gg\LL	f
.	.	.	.	.	.	.	16aa\J	.
8d\	.	.	8d\	.	.	.	8bb-\	.
8D\J	.	.	8D\J	.	8d\	.	8aa\J	.
=86	=86	=86	=86	=86	=86	=86	=86	=86
4G\	.	4.r	4G\	.	4d\	.	8gg\L	.
.	.	.	.	.	.	.	8dd\	.
8F#\	.	.	8F#\	.	8a\	.	8ccc\J	.
=87	=87	=87	=87	=87	=87	=87	=87	=87
8G\L	.	4.r	8G\L	.	8g\L	.	8bb-\L	.
8C\	.	.	8C\	.	8a\	.	8ccc\	.
8D\J	.	.	8D\J	.	8f#\J	.	8aa\J	.
=88	=88	=88	=88	=88	=88	=88	=88	=88
4GG/	.	4.r	4GG/	.	4g\	.	4gg\	.
8r	.	.	8r	.	8r	.	8r	.
=89	=89	=89	=89	=89	=89	=89	=89	=89
8GG/L	p	4.r	8GG/L	p	4d\	p	16g/LL	p
.	.	.	.	.	.	.	16a/J	.
8D/	.	.	8D/	.	.	.	8b-/	.
8DD/J	.	.	8DD/J	.	8d\	.	8a/J	.
=90	=90	=90	=90	=90	=90	=90	=90	=90
4GG/	.	4.r	4GG/	.	4d\	.	8g/L	.
.	.	.	.	.	.	.	8d/	.
8FF#/	.	.	8FF#/	.	8a\	.	8cc/J	.
=91	=91	=91	=91	=91	=91	=91	=91	=91
8GG/L	.	4.r	8GG/L	.	8g\L	.	8b-\L	.
8C/	.	.	8C/	.	8a\	.	8cc\	.
8D/J	.	.	8D/J	.	8f#\J	.	8a\J	.
=92	=92	=92	=92	=92	=92	=92	=92	=92
4GG/	.	4.r	4GG/	.	4g\	.	4g/	.
8r	.	.	8r	.	8r	.	8r	.
=93	=93	=93	=93	=93	=93	=93	=93	=93
8GG/L	f	4.r	8GG/L	f	16b-\LL	f	16gg\LL	f
.	.	.	.	.	16cc\	.	16aa\	.
8G/	.	.	8G/	.	16b-\	.	16gg\	.
.	.	.	.	.	16cc\J	.	16aa\J	.
8GG/J	.	.	8GG/J	.	8b-\J	.	8gg\J	.
=94	=94	=94	=94	=94	=94	=94	=94	=94
4GG/	.	4.r	4GG/	.	4.b-\	.	4.gg\	.
8r	.	.	8r	.	.	.	.	.
=95	=95	=95	=95	=95	=95	=95	=95	=95
8GG/L	p	4.r	8GG/L	p	16B-/LL	p	16g/LL	p
.	.	.	.	.	16c/	.	16a/	.
8G/	.	.	8G/	.	16B-/	.	16g/	.
.	.	.	.	.	16c/J	.	16a/J	.
8GG/J	.	.	8GG/J	.	8B-/J	.	8g/J	.
=96	=96	=96	=96	=96	=96	=96	=96	=96
4GG/	.	4.r	4GG/	.	4.B-/	.	4.g/	.
8r	.	.	8r	.	.	.	.	.
=97	=97	=97	=97	=97	=97	=97	=97	=97
4GG/	f	4.r	4GG/	f	4d\	f	16r	.
.	.	.	.	.	.	.	16aa\LL	f
.	.	.	.	.	.	.	16gg\	.
.	.	.	.	.	.	.	16aa\J	.
8r	.	.	8r	.	8r	.	8gg\J	.
=98	=98	=98	=98	=98	=98	=98	=98	=98
4GG/	.	4.r	4GG/	.	4d\	.	16r	.
.	.	.	.	.	.	.	16aa\LL	.
.	.	.	.	.	.	.	16gg\	.
.	.	.	.	.	.	.	16aa\J	.
8r	.	.	8r	.	8r	.	8gg\J	.
=99	=99	=99	=99	=99	=99	=99	=99	=99
8GG/L	.	4.r	8GG/L	.	8g\L	.	8bb-\L	.
8C/	.	.	8C/	.	8a\	.	8ccc\	.
8D/J	.	.	8D/J	.	8f#\J	.	8aa\J	.
=100	=100	=100	=100	=100	=100	=100	=100	=100
4GG/	.	4.r	4GG/	.	4g\	.	4gg\	.
8r	.	.	8r	.	8r	.	8r	.
=101	=101	=101	=101	=101	=101	=101	=101	=101
4GG/	p	4.r	4GG/	p	4d\	p	16r	.
.	.	.	.	.	.	.	16a/LL	p
.	.	.	.	.	.	.	16g/	.
.	.	.	.	.	.	.	16a/J	.
8r	.	.	8r	.	8r	.	8g/J	.
=102	=102	=102	=102	=102	=102	=102	=102	=102
4GG/	.	4.r	4GG/	.	4d\	.	16r	.
.	.	.	.	.	.	.	16a/LL	.
.	.	.	.	.	.	.	16g/	.
.	.	.	.	.	.	.	16a/J	.
8r	.	.	8r	.	8r	.	8g/J	.
=103	=103	=103	=103	=103	=103	=103	=103	=103
8GG/L	.	4.r	8GG/L	.	8g\L	.	8b-\L	.
8C/	.	.	8C/	.	8a\	.	8cc\	.
8D/J	.	.	8D/J	.	8f#\J	.	8a\J	.
=104	=104	=104	=104	=104	=104	=104	=104	=104
4GG/	.	4.r	4GG/	.	4g\	.	4g/	.
8r	.	.	8r	.	8r	.	8r	.
=105	=105	=105	=105	=105	=105	=105	=105	=105
8GG/L	f	4.r	8GG/L	f	8b-\L	f	8gg\L	f
8C/	.	.	8C/	.	8cc\	.	8aa\	.
8D/J	.	.	8D/J	.	8a\J	.	8ff#\J	.
=106	=106	=106	=106	=106	=106	=106	=106	=106
4.GG;/	.	4.r	4.GG;/	.	4.b-;\	.	4.gg;\	.
==:|!	==:|!	==:|!	==:|!	==:|!	==:|!	==:|!	==:|!	==:|!
*-	*-	*-	*-	*-	*-	*-	*-	*-
!!!ENC: Don Anthony
!!!END: 2005/06/10/
!!!ONB: Converted to Humdrum by Craig Sapp 2005/06/26/
